X:110
T:Cuz Teahan's
M:4/4
L:1/8
Q:120
R:Reel (Key of A)
K:Amaj
"A"E2EF A2AB | ceec BAFA | "F#m"f2ec ABcd | "A"ecBA "D"FAAF |
"A"ECEF A2AB | ceec BAFA | "F#m"f2ec ABcd |1 "E"ecBc "A"A2AF :|2 "E"ecBc "A"A2af |:
"A"ecef "D"a2af | "A"ecBA FAAB | "F#m"cBBA cBBA | cBBA FAAf |
"A"ecef "D"a2af | "A"ecBA FAAB | "F#m"cBBA cBBA |1 "E"cABc "A"A2af :|2 "E"cABc "A"A2AF |]
